X: 1107
T: The Pretty Girl Milking Her Cow
B: max new tunes
B: steve tunes
M:3/4
Q: 1/4=100
K:Eminor
V:1 
EF|"Em"G2B3G|"D"F2A3F|"C"E3F ED-|"Em"D4EF|"Em"G2B3G|"D"F2A3F|"C"E6-|"C"E4EF|
"Em"G2B3G|"D"F2A3F|"C"E3F ED-|"Em"D4BA|"Em"G3FE2|"D"D3EF2|"Em"E6-|"Em"E4:|
|:"G"D2|"G"G3AB2|"D"d3BG2|"D"F2D4-|"D"D4D2|"G"G3AB2|"D"d2B2d2|"Em"e6-|"Em"e4ef|
"Em"g3fe2|"G"d3BG2|"D"F2D4-|"D"D4BA|"Em"G3FE2|"D"D3EF2|"Em"E6-|"Em"E4:|
% abcbook-tune_id 62b5b3cc7506fb7406f708a8


% abcbook-boost 15
% abcbook-tablature 
% abcbook-transpose 
% abcbook-lastupdated 1656290283535
% abcbook-soundfonts 
% abcbook-repeats 3


